X:847
T:Bunch of Green Rushes
O:england
R:reel
D:Kevin Burke: Up Close.
D:Frankie Gavin & Alec Finn.
M:C|
K:Dmix
d|:cAGA ~=F3d|cAGB AddB|cAGA =F2eg|1 ^fdec AddB:|2 ^fdec Add2||
|:Ad~d2 cAGA|~=FGAc cAGc|Ad~d2 cAGA|1 cdeg gedc:|2 cdeg ^fddc||
|:d2^fd adfd|c2ec gcec|1 d2^fd adfd|cAGc Addc:|2 ~f3g fede|dcAG Add||
